X: 0
T: Christmas Time Has Come Again
Z: George Edgar Oliver
Z: Copyright © 2002 by Douglas D. Anderson
Z: Released To The Public Domain
L: 1/4
M: 4/4
Q: 1/4=100
V: P1 name="Staff"
%%MIDI program 1 19
K: A
[V: P1]  (E/A/) (G/F/) (E/F/) (C/D/) | E F (C E) | (E/c/) (B/A/) (A/G/) (A/^A/) | B4 | (E/d/) (c/B/) (A/G/) (F/E/) | G A (^A B) | (B/c/) (B/A/) (G/A/) (G/F/) | E4 |"^Chorus" E E E2 | E E E2 | F F G G | (A2 c2) | E E E E | F F F2 | G d c B | A4|]
w: Christ-_ mas_ time_ has_ come a- gain,_ Time_ to_ us_ so_ dear; It_ will_ bring_ to_ all the world_ Glad-_ ness_ and_ good_ cheer. Ring on, bells! Ring on Bells! Ring on, Christ- mas bells!_ Joy and peace to all man- kind, Ring out, mer- ry bells!

